X: 0
T: Paddy's
C: Trad
M: 4/4
L: 1/8
K: Amaj
|:"A"E>F AB|ce "A/C#"c2|"D"BA c"E"B|BA FA|
"A"E>F "A/G#"AB|"F#m"ce "E"c2|"D"BA "E"cB|1 "A"A2 AF:|2 "A"AB ce||
|:"A" aa fa/2f/2|ec "C#m"e2|"D" A>B cB|"E"BA FA|
"A" E>F "Bm"AB|"A/C#"ce "D"c2| "E"BA cB|1 "D/E" AB ce:|2 "A" A2 AF|]